X: 1
T:Hamilton's Nutsack
M:C|
L:1/8
Q:80
C:
S:Hornpipe
K:HP
|: {g}c/2e/2{A}e/2c/2{g}A{g}e/2c/2|
{g}A/2e/2{g}c/2{d}A/2{g}f/2e/2{A}e/2f/2|
{g}c/2d/2{g}d/2c/2{g}B/2{G}B/2{g}f/2e/2|  !
{g}e/2f/2{g}f/2e/2{g}e/2f/2{g}d/2B/2|
{g}c/2e/2{A}e/2c/2{g}A{g}e/2c/2|
{g}A/2e/2{g}c/2{d}A/2{g}f/2e/2{A}e/2f/2|  !
{g}c/2d/2{g}d/2c/2{g}B/2{G}B/2{g}f/2e/2|
{g}e/2f/2{g}d/2B/2{G}A2:| [|
a/2e/2{A}e/2a/2B/2c/2{g}c/2{G}c/2|  !
a/2e/2{A}e/2a/2B/2c/2{g}e/2c/2|
a/2f/2{e}f/2a/2c/2d/2{g}d/2{c}d/2|
{g}f/2a/2{g}a/2f/2{g}e/2f/2{g}d/2B/2|  !
a/2e/2{A}e/2a/2B/2c/2{g}c/2{G}c/2|
a/2e/2{A}e/2a/2B/2c/2{g}e/2c/2|
{g}c/2d/2{g}d/2c/2{g}B/2{G}B/2{g}f/2e/2|  !
{g}e/2f/2{g}d/2B/2{G}A2|
a/2e/2{A}e/2a/2B/2c/2{g}c/2{G}c/2|
a/2B/2c/2a/2B/2c/2{g}e/2c/2|  !
a/2f/2{e}f/2a/2c/2d/2{g}d/2{c}d/2|
{g}f/2a/2{g}a/2f/2{g}e/2f/2{g}d/2B/2|
a/2e/2{A}e/2a/2B/2c/2{g}c/2{G}c/2|  !
a/2B/2c/2a/2B/2c/2{g}e/2c/2|
{g}c/2d/2{g}d/2c/2{g}B/2{G}B/2{g}f/2e/2|
{g}e/2f/2{g}d/2B/2{G}A2|]  !
